**kern	**silbe	**kern	**silbe	**harmony	**chordsym	**phrase	**timestamp	**leadinstrument
*ICvox	*	*ICvox	*	*M4/4	*M4/4	*	*	*
*A:	*	*A:	*	*A:	*A:	*	*	*
*M4/4	*	*M4/4	*	*	*	*	*	*
*clefF3	*	*clefF4	*	*	*	*	*	*
r;	.	r;	.	1r;	r	.	0	r
=1	=1	=1	=1	=1	=1	=1	=1	=1
*	*	*	*	*>A_intro	*>A_intro	*>A_intro	*>A_intro	*>A_intro
1r	.	1r	.	1AM	A:maj (A C# E)	newline	0.34	guitar
=2	=2	=2	=2	=2	=2	=2	=2	=2
1r	.	1r	.	2AM	A:maj (A C# E)	.	.	guitar
.	.	.	.	4DM	D:maj (A D F#)	.	.	guitar
.	.	.	.	4AM	A:maj (A C# E)	.	.	guitar
=3	=3	=3	=3	=3	=3	=3	=3	=3
1r	.	1r	.	1AM	A:maj (A C# E)	.	.	guitar
=4	=4	=4	=4	=4	=4	=4	=4	=4
1r	.	1r	.	2EM	E:maj (E G# B)	.	.	guitar
.	.	.	.	2AM	A:maj (A C# E)	.	.	guitar
=5	=5	=5	=5	=5	=5	=5	=5	=5
1r	.	1r	.	1AM	A:maj (A C# E)	.	.	guitar
=6	=6	=6	=6	=6	=6	=6	=6	=6
1r	.	1r	.	2AM	A:maj (A C# E)	.	.	guitar
.	.	.	.	4DM	D:maj (A D F#)	.	.	guitar
.	.	.	.	4AM	A:maj (A C# E)	.	.	guitar
=7	=7	=7	=7	=7	=7	=7	=7	=7
1r	.	1r	.	1AM	A:maj (A C# E)	.	.	guitar
=8	=8	=8	=8	=8	=8	=8	=8	=8
1r	.	1r	.	2EM	E:maj (E G# B)	.	.	guitar
.	.	.	.	2AM	A:maj (A C# E)	.	.	guitar
=9	=9	=9	=9	=9	=9	=9	=9	=9
1r	.	1r	.	1AM	A:maj (A C# E)	newline	12.761	guitar
=10	=10	=10	=10	=10	=10	=10	=10	=10
1r	.	1r	.	2EM	E:maj (E G# B)	.	.	guitar
.	.	.	.	2AM	A:maj (A C# E)	.	.	guitar
=11	=11	=11	=11	=11	=11	=11	=11	=11
*clefG2	*	*	*	*>A_verse	*>A_verse	*>A_verse	*>A_verse	*>A_verse
8c#	Su-	8E A	Su-	1AM	A:maj (A C# E)	newline	16.056	voice
8c#	-gar	8E A	-gar	.	.	.	.	.
8e	mag-	8E A	mag-	.	.	.	.	.
[8e	-no	[8F# [B	-no	.	.	.	.	.
8e]	_	8F#] B]	_	.	.	.	.	.
8c#	lia,	8E A	lia,	.	.	.	.	.
4r	.	4r	.	.	.	.	.	.
=12	=12	=12	=12	=12	=12	=12	=12	=12
8c#	blos-	8E A	blos-	2AM	A:maj (A C# E)	.	.	voice
4e	-soms	4A c#	-soms	.	.	.	.	.
[8d	bloo-	[8F# [B	bloo-	.	.	.	.	.
8d]	_	8F#] B]	_	4DM	D:maj (A D F#)	.	.	voice
8c#	-ming,	8E A	-ming,	.	.	.	.	.
4r	.	4r	.	4AM	A:maj (A C# E)	.	.	voice
=13	=13	=13	=13	=13	=13	=13	=13	=13
8e	heads	8c#	heads	2AM	A:maj (A C# E)	.	.	voice
4a	all	4e	all	.	.	.	.	.
.	.	8c#q	_	.	.	.	.	.
[8f#	emp	[8B	emp	.	.	.	.	.
8f#]	_	8B]	_	2GM	G:maj (G B D)	.	.	voice
8e	ty	8A	ty	.	.	.	.	.
8d	and	8A	and	.	.	.	.	.
[8d	I	[8F#	I	.	.	.	.	.
=14	=14	=14	=14	=14	=14	=14	=14	=14
8d]	_	8F#]	_	2EM	E:maj (E G# B)	.	.	voice
4d	don't	4E G#	don't	.	.	.	.	.
8c#	care.	8E A	care.	.	.	.	.	.
2r	.	2r	.	2AM	A:maj (A C# E)	.	.	voice
=15	=15	=15	=15	=15	=15	=15	=15	=15
4a	Saw	1r	.	1AM	A:maj (A C# E)	newline	22.09	voice
4a	my	.	.	.	.	.	.	.
4f#	ba-	.	.	.	.	.	.	.
8e	-by	.	.	.	.	.	.	.
[8f#	down	.	.	.	.	.	.	.
=16	=16	=16	=16	=16	=16	=16	=16	=16
8f#]	_	1r	.	2C#m	C#:min (C# E G#)	.	.	voice
4e	by	.	.	.	.	.	.	.
8c#	the	.	.	.	.	.	.	.
8e	ri-	.	.	2F#m	F#:min (F# A C#)	.	.	voice
8c#	-ver.	.	.	.	.	.	.	.
4r	.	.	.	.	.	.	.	.
=17	=17	=17	=17	=17	=17	=17	=17	=17
4r	.	4r	.	1EM	E:maj (E G# B)	.	.	voice
8e	Knew	8E B	Knew	.	.	.	.	.
8c#	she'd	8E A	she'd	.	.	.	.	.
8e	have	8E A	have	.	.	.	.	.
8c#	to	8E F#	to	.	.	.	.	.
8e	come	8E A	come	.	.	.	.	.
8f#	up	8F# B	up	.	.	.	.	.
=18	=18	=18	=18	=18	=18	=18	=18	=18
8r	.	8r	.	2DM	D:maj (D F# A)	.	.	voice
4e	soon	[8A c#	soon	.	.	.	.	.
.	.	8A] B	_	.	.	.	.	.
8c#	for	8G# A	for	.	.	.	.	.
8c#	air	[8E A	air	2AM	A:maj (A C# E)	.	.	voice
4.e	_	4.E] E	_	.	.	.	.	.
=19	=19	=19	=19	=19	=19	=19	=19	=19
2r	.	1r	.	1AM	A:maj (A C# E)	newline	28.293	guitar
2r	.	.	.	.	.	.	.	.
=20	=20	=20	=20	=20	=20	=20	=20	=20
1r	.	1r	.	2EM	E:maj (E G# B)	.	.	guitar
.	.	.	.	2AM	A:maj (A C# E)	.	.	guitar
=21	=21	=21	=21	=21	=21	=21	=21	=21
*	*	*	*	*>A_verse	*>A_verse	*>A_verse	*>A_verse	*>A_verse
6c#	Sweet	1r	.	1AM	A:maj (A C# E)	newline	31.434	voice
6e	blos-	.	.	.	.	.	.	.
6c#	-som,	.	.	.	.	.	.	.
6e	come	.	.	.	.	.	.	.
3c#	on,	.	.	.	.	.	.	.
=22	=22	=22	=22	=22	=22	=22	=22	=22
8c#	un-	1r	.	2AM	A:maj (A C# E)	.	.	voice
8c#	-der	.	.	.	.	.	.	.
8e	the	.	.	.	.	.	.	.
[8f#	wil	.	.	.	.	.	.	.
8f#]	_	.	.	4DM	D:maj (A D F#)	.	.	voice
8e	low,	.	.	.	.	.	.	.
4r	.	.	.	4AM	A:maj (A C# E)	.	.	voice
=23	=23	=23	=23	=23	=23	=23	=23	=23
8c#	we	1r	.	2AM	A:maj (A C# E)	.	.	voice
8c#	can	.	.	.	.	.	.	.
8e	have	.	.	.	.	.	.	.
4cQ	_	.	.	.	.	.	.	.
[8B	high	.	.	.	.	.	.	.
8B]	_	.	.	2GM	G:maj (G B D)	.	.	voice
[8A	times,	.	.	.	.	.	.	.
8A]	_	.	.	.	.	.	.	.
8A	if	.	.	.	.	.	.	.
=24	=24	=24	=24	=24	=24	=24	=24	=24
8B	you'll	1r	.	2EM	E:maj (E G# B)	.	.	voice
8c#	a-	.	.	.	.	.	.	.
4c#	-bide.	.	.	.	.	.	.	.
2r	.	.	.	2AM	A:maj (A C# E)	.	.	voice
=25	=25	=25	=25	=25	=25	=25	=25	=25
8c#	We	1r	.	1AM	A:maj (A C# E)	newline	37.57	voice
8c#	can	.	.	.	.	.	.	.
8a	dis-	.	.	.	.	.	.	.
[8f#	-co	.	.	.	.	.	.	.
8f#]	_	.	.	.	.	.	.	.
[8e	ver	.	.	.	.	.	.	.
8e]	_	.	.	.	.	.	.	.
8e	the	.	.	.	.	.	.	.
=26	=26	=26	=26	=26	=26	=26	=26	=26
6f#	won-	1r	.	2C#m	C#:min (C# E G#)	.	.	voice
6e	-ders	.	.	.	.	.	.	.
6c#	of	.	.	.	.	.	.	.
6e	na	.	.	2F#m	F#:min (F# A C#)	.	.	voice
8c#q	_	.	.	.	.	.	.	.
3B	ture,	.	.	.	.	.	.	.
=27	=27	=27	=27	=27	=27	=27	=27	=27
8e	rol-	8E A	rol-	1EM	E:maj (E G# B)	.	.	voice
8e	-ling	8E A	-ling	.	.	.	.	.
8e	in	8E A	in	.	.	.	.	.
8e	the	8E F#	the	.	.	.	.	.
8e	ru-	8E A	ru-	.	.	.	.	.
[8e	-shes,	[8E [B	-shes,	.	.	.	.	.
8e]	_	8E] B]	_	.	.	.	.	.
[8f#	down	[8F# [c#	down	.	.	.	.	.
=28	=28	=28	=28	=28	=28	=28	=28	=28
8f#]	_	8F#] c#]	_	2DM	D:maj (D F# A)	.	.	voice
[8e	by	[8A	by	.	.	.	.	.
8e]	_	8A]	_	.	.	.	.	.
8e	the	8F# B	the	.	.	.	.	.
8e	ri-	8A c#	ri-	2AM	A:maj (A C# E)	.	.	voice
8e	-ver-	8F# B	-ver-	.	.	.	.	.
8B	-side	4E A	-side	.	.	.	.	.
8c#	_	.	.	.	.	.	.	.
=29	=29	=29	=29	=29	=29	=29	=29	=29
1r	.	1r	.	1AM	A:maj (A C# E)	newline	43.809	guitar
=30	=30	=30	=30	=30	=30	=30	=30	=30
1r	.	1r	.	2EM	E:maj (E G# B)	.	.	guitar
.	.	.	.	2AM	A:maj (A C# E)	.	.	guitar
=31	=31	=31	=31	=31	=31	=31	=31	=31
*	*	*	*	*>B_bridge	*>B_bridge	*>B_bridge	*>B_bridge	*>B_bridge
4d	She's	4F# d	She's	1DM	D:maj (D F# A)	newline	46.956	voice
4f#	got	4A d	got	.	.	.	.	.
4d	ev-	4A d	ev-	.	.	.	.	.
8f#	-ry-	8A d	-ry-	.	.	.	.	.
[8g	-thing	[8B [e	-thing	.	.	.	.	.
=32	=32	=32	=32	=32	=32	=32	=32	=32
4g]	_	4B] e]	_	2GM	G:maj (G B D)	.	.	voice
8g	de-	8B e	de-	.	.	.	.	.
8f#	-light	[8A [d	-light	.	.	.	.	.
8e	_	8A] d]	_	2DM	D:maj (D F# A)	.	.	voice
8d	ful,	[8F# A	ful,	.	.	.	.	.
4r	.	8F#] B	_	.	.	.	.	.
.	.	8r	.	.	.	.	.	.
=33	=33	=33	=33	=33	=33	=33	=33	=33
4d	she's	4F# d	she's	1DM	D:maj (D F# A)	.	.	voice
4f#	got	4A d	got	.	.	.	.	.
4d	ev-	8A [d	ev-	.	.	.	.	.
.	.	8G d]	_	.	.	.	.	.
8f#	-ry-	8F# d	-ry-	.	.	.	.	.
[8e	-thing	[8G [c#	-thing	.	.	.	.	.
=34	=34	=34	=34	=34	=34	=34	=34	=34
8e]	_	8G] c#]	_	2AM	A:maj (A C# E)	.	.	voice
[8d	I	8F# A	I	.	.	.	.	.
4d]	_	4G B	_	.	.	.	.	.
4d	need.	4F# A	need.	2DM	D:maj (D F# A)	.	.	voice
4r	.	4r	.	.	.	.	.	.
=35	=35	=35	=35	=35	=35	=35	=35	=35
4f#	Takes	4A d	She's	1DM	D:maj (D F# A)	newline	53.159	voice
8f#	the	8A d	got	.	.	.	.	.
[8f#	wheel	8A [d	_	.	.	.	.	.
8f#]	_	8A d]	ev-	.	.	.	.	.
8f#	when	8F# B	_	.	.	.	.	.
[4g	I'm	[4B [e	-ry-	.	.	.	.	.
=36	=36	=36	=36	=36	=36	=36	=36	=36
8g]	_	8B] e]	_	2GM	G:maj (G B D)	.	.	voice
8f#	see-	8A d	_	.	.	.	.	.
4g	-ing	4B e	-de-	.	.	.	.	.
8f#	dou	8A d	_	2DM	D:maj (D F# A)	.	.	voice
8e	_	8G B	-ful,	.	.	.	.	.
4d	ble,	4F# A	_	.	.	.	.	.
=37	=37	=37	=37	=37	=37	=37	=37	=37
4f#	pays	4A d	she's	1DM	D:maj (D F# A)	.	.	voice
4f#	my	4A d	got	.	.	.	.	.
8f#	ti-	8A d	ev-	.	.	.	.	.
8d	-cket,	8G B	_	.	.	.	.	.
4r	.	4r	.	.	.	.	.	.
=38	=38	=38	=38	=38	=38	=38	=38	=38
8d	when	8G#	_	2EM	E:maj (E G# B)	.	.	voice
[8e	I	[8G# [B	-I	.	.	.	.	.
4e]	_	4G#] B]	_	.	.	.	.	.
[2e	speed!	[8A B	need.	2AM	A:maj (A C# E)	.	.	voice
.	.	4.A_ [c#	_	.	.	.	.	.
=39	=39	=39	=39	=39	=39	=39	=39	=39
2e]	_	2A] c#]	_	1AM	A:maj (A C# E)	newline	59.37	guitar
2r	.	2r	.	.	.	.	.	.
=40	=40	=40	=40	=40	=40	=40	=40	=40
1r	.	1r	.	2EM	E:maj (E G# B)	.	.	guitar
.	.	.	.	2AM	A:maj (A C# E)	.	.	guitar
=41	=41	=41	=41	=41	=41	=41	=41	=41
*	*	*	*	*>A_interlude	*>A_interlude	*>A_interlude	*>A_interlude	*>A_interlude
1r	.	1r	.	1AM	A:maj (A C# E)	newline	62.467	guitar
=42	=42	=42	=42	=42	=42	=42	=42	=42
1r	.	1r	.	2AM	A:maj (A C# E)	.	.	guitar
.	.	.	.	4DM	D:maj (A D F#)	.	.	guitar
.	.	.	.	4AM	A:maj (A C# E)	.	.	guitar
=43	=43	=43	=43	=43	=43	=43	=43	=43
1r	.	1r	.	1AM	A:maj (A C# E)	.	.	guitar
=44	=44	=44	=44	=44	=44	=44	=44	=44
1r	.	1r	.	2EM	E:maj (E G# B)	.	.	guitar
.	.	.	.	2AM	A:maj (A C# E)	.	.	guitar
=45	=45	=45	=45	=45	=45	=45	=45	=45
1r	.	1r	.	1AM	A:maj (A C# E)	newline	68.741	guitar
=46	=46	=46	=46	=46	=46	=46	=46	=46
1r	.	1r	.	2AM	A:maj (A C# E)	.	.	guitar
.	.	.	.	4DM	D:maj (A D F#)	.	.	guitar
.	.	.	.	4AM	A:maj (A C# E)	.	.	guitar
=47	=47	=47	=47	=47	=47	=47	=47	=47
1r	.	1r	.	1AM	A:maj (A C# E)	.	.	guitar
=48	=48	=48	=48	=48	=48	=48	=48	=48
1r	.	1r	.	2EM	E:maj (E G# B)	.	.	guitar
.	.	.	.	2AM	A:maj (A C# E)	.	.	guitar
=49	=49	=49	=49	=49	=49	=49	=49	=49
1r	.	1r	.	1AM	A:maj (A C# E)	newline	74.961	guitar
=50	=50	=50	=50	=50	=50	=50	=50	=50
1r	.	1r	.	2EM	E:maj (E G# B)	.	.	guitar
.	.	.	.	2AM	A:maj (A C# E)	.	.	guitar
=51	=51	=51	=51	=51	=51	=51	=51	=51
*clefF4	*	*	*	*>A_verse	*>A_verse	*>A_verse	*>A_verse	*>A_verse
8r	.	1r	.	1AM	A:maj (A C# E)	newline	78.079	voice
8C#	Well,	.	.	.	.	.	.	.
8c#	she	.	.	.	.	.	.	.
8e	comes	.	.	.	.	.	.	.
8e	ski-	.	.	.	.	.	.	.
8c#	-mmin'	.	.	.	.	.	.	.
8e	through	.	.	.	.	.	.	.
[8e	waves	.	.	.	.	.	.	.
=52	=52	=52	=52	=52	=52	=52	=52	=52
8e]	_	1r	.	2AM	A:maj (A C# E)	.	.	voice
8c#	_	.	.	.	.	.	.	.
8e	of	.	.	.	.	.	.	.
[8f#	vio	.	.	.	.	.	.	.
8f#]	_	.	.	4DM	D:maj (A D F#)	.	.	voice
8e	let,	.	.	.	.	.	.	.
4r	.	.	.	4AM	A:maj (A C# E)	.	.	voice
=53	=53	=53	=53	=53	=53	=53	=53	=53
4r	.	1r	.	2AM	A:maj (A C# E)	.	.	voice
8c#	she	.	.	.	.	.	.	.
8e	can	.	.	.	.	.	.	.
8c#	wade	.	.	2GM	G:maj (G B D)	.	.	voice
8B	in	.	.	.	.	.	.	.
8A	a	.	.	.	.	.	.	.
8B	drop	.	.	.	.	.	.	.
=54	=54	=54	=54	=54	=54	=54	=54	=54
8r	.	1r	.	2EM	E:maj (E G# B)	.	.	voice
8B	of	.	.	.	.	.	.	.
8r	.	.	.	.	.	.	.	.
[8c#	dew	.	.	.	.	.	.	.
8c#]	_	.	.	2AM	A:maj (A C# E)	.	.	voice
8r	.	.	.	.	.	.	.	.
4r	.	.	.	.	.	.	.	.
=55	=55	=55	=55	=55	=55	=55	=55	=55
8r	.	1r	.	1AM	A:maj (A C# E)	newline	84.256	voice
8c#	She	.	.	.	.	.	.	.
8e	don't	.	.	.	.	.	.	.
8r	.	.	.	.	.	.	.	.
4e	come	.	.	.	.	.	.	.
8A	and	.	.	.	.	.	.	.
[8c#	I	.	.	.	.	.	.	.
=56	=56	=56	=56	=56	=56	=56	=56	=56
8c#]	_	1r	.	2C#m	C#:min (C# E G#)	.	.	voice
8c#	don't	.	.	.	.	.	.	.
8B	_	.	.	.	.	.	.	.
8A	_	.	.	.	.	.	.	.
8c#	fo-	.	.	2F#m	F#:min (F# A C#)	.	.	voice
[8A	-llow	.	.	.	.	.	.	.
4A]	_	.	.	.	.	.	.	.
=57	=57	=57	=57	=57	=57	=57	=57	=57
4d	Waits	1r	.	1EM	E:maj (E G# B)	.	.	voice
4c#	back-	.	.	.	.	.	.	.
4B	-stage	.	.	.	.	.	.	.
8A	while	.	.	.	.	.	.	.
[8B	I	.	.	.	.	.	.	.
=58	=58	=58	=58	=58	=58	=58	=58	=58
8B]	_	1r	.	2DM	D:maj (D F# A)	.	.	voice
[8c#	sing	.	.	.	.	.	.	.
8c#]	_	.	.	.	.	.	.	.
8B	to	.	.	.	.	.	.	.
8B	you	.	.	2AM	A:maj (A C# E)	.	.	voice
[8c#	_	.	.	.	.	.	.	.
4c#]	_	.	.	.	.	.	.	.
=59	=59	=59	=59	=59	=59	=59	=59	=59
1r	.	1r	.	1AM	A:maj (A C# E)	newline	90.591	guitar
=60	=60	=60	=60	=60	=60	=60	=60	=60
1r	.	1r	.	2EM	E:maj (E G# B)	.	.	guitar
.	.	.	.	2AM	A:maj (A C# E)	.	.	guitar
=61	=61	=61	=61	=61	=61	=61	=61	=61
*clefG2	*	*	*	*>A_verse	*>A_verse	*>A_verse	*>A_verse	*>A_verse
8r	.	8r	.	1AM	A:maj (A C# E)	newline	93.685	voice
8e	Well,	8A A	Well,	.	.	.	.	.
8a	she	8B c#	she	.	.	.	.	.
8a	can	8c# e	can	.	.	.	.	.
4a	dance	8c# [e	dance	.	.	.	.	.
.	.	8B e]	_	.	.	.	.	.
8a	a	8A c#	a	.	.	.	.	.
[8a	Ca	[8B [e	Ca	.	.	.	.	.
=62	=62	=62	=62	=62	=62	=62	=62	=62
8a]	_	8B] e]	_	2AM	A:maj (A C# E)	.	.	voice
[8a	jun	[8c# [e	jun	.	.	.	.	.
8a]	_	8c#] e]	_	.	.	.	.	.
8a	a'	8B c#	a'	.	.	.	.	.
8a	rhy-	8c# e	rhy-	4DM	D:maj (A D F#)	.	.	voice
[8e	-thm	8B c#	-thm	.	.	.	.	.
8e]	_	8A	_	4AM	A:maj (A C# E)	.	.	voice
8r	.	8r	.	.	.	.	.	.
=63	=63	=63	=63	=63	=63	=63	=63	=63
8c#	Jump	1r	.	2AM	A:maj (A C# E)	.	.	voice
8e	like	.	.	.	.	.	.	.
8c#	a	.	.	.	.	.	.	.
8B	wil-	.	.	.	.	.	.	.
8A	-lys	.	.	2GM	G:maj (G B D)	.	.	voice
8r	.	.	.	.	.	.	.	.
8A	in	.	.	.	.	.	.	.
[8B	four	.	.	.	.	.	.	.
=64	=64	=64	=64	=64	=64	=64	=64	=64
8B]	_	1r	.	2EM	E:maj (E G# B)	.	.	voice
8c#	wheel	.	.	.	.	.	.	.
8B	_	.	.	.	.	.	.	.
[8c#	drive	.	.	.	.	.	.	.
4c#]	_	.	.	2AM	A:maj (A C# E)	.	.	voice
4r	.	.	.	.	.	.	.	.
=65	=65	=65	=65	=65	=65	=65	=65	=65
8a	She's	8c#	She's	1AM	A:maj (A C# E)	newline	99.986	voice
8a	a	8e	a	.	.	.	.	.
8a	sum-	8e	sum-	.	.	.	.	.
8a	-mer	8c#	-mer	.	.	.	.	.
8a	love	8c# e	love	.	.	.	.	.
8a	in	8B c#	in	.	.	.	.	.
8a	the	8A c#	the	.	.	.	.	.
[8g#	spring,	[8G# B	spring,	.	.	.	.	.
=66	=66	=66	=66	=66	=66	=66	=66	=66
8g#]	_	8G#] c#	_	2C#m	C#:min (C# E G#)	.	.	voice
8f#q	_	.	.	.	.	.	.	.
[8g#	fall,	[8G# [c#	fall,	.	.	.	.	.
8g#]	_	8G#] c#]	_	.	.	.	.	.
8g#	and	8G# B	and	.	.	.	.	.
8f#	win-	8A c#	win-	2F#m	F#:min (F# A C#)	.	.	voice
[8f#	-ter,	[8F# [A	-ter,	.	.	.	.	.
4f#]	_	4F#] A]	_	.	.	.	.	.
=67	=67	=67	=67	=67	=67	=67	=67	=67
8B	she	1r	.	1EM	E:maj (E G# B)	.	.	voice
8c#	can	.	.	.	.	.	.	.
8c#	make	.	.	.	.	.	.	.
[8B	hap	.	.	.	.	.	.	.
8B]	_	.	.	.	.	.	.	.
8A	py,	.	.	.	.	.	.	.
4r	.	.	.	.	.	.	.	.
=68	=68	=68	=68	=68	=68	=68	=68	=68
8d	a-	1r	.	2DM	D:maj (D F# A)	.	.	voice
8c#	-ny	.	.	.	.	.	.	.
8B	man	.	.	.	.	.	.	.
8A	a-	.	.	.	.	.	.	.
8B	-live	.	.	2AM	A:maj (A C# E)	.	.	voice
8c#	_	.	.	.	.	.	.	.
4r	.	.	.	.	.	.	.	.
=69	=69	=69	=69	=69	=69	=69	=69	=69
1r	.	1r	.	1AM	A:maj (A C# E)	newline	106.136	guitar
=70	=70	=70	=70	=70	=70	=70	=70	=70
1r	.	1r	.	2EM	E:maj (E G# B)	.	.	guitar
.	.	.	.	2AM	A:maj (A C# E)	.	.	guitar
=71	=71	=71	=71	=71	=71	=71	=71	=71
*	*	*	*	*>C_chorus	*>C_chorus	*>C_chorus	*>C_chorus	*>C_chorus
8c#	Su-	1r	.	2AM	A:maj (A C# E)	newline	109.177	voice
8c#	-gar	.	.	.	.	.	.	.
8e	mag	.	.	.	.	.	.	.
8eq	_	.	.	.	.	.	.	.
[8f#	no	.	.	.	.	.	.	.
8f#]	_	.	.	2GM	G:maj (G B D)	.	.	voice
[8e	lia!	.	.	.	.	.	.	.
8e]	_	.	.	.	.	.	.	.
8r	.	.	.	.	.	.	.	.
=72	=72	=72	=72	=72	=72	=72	=72	=72
*	*	*clefG2	*	*	*	*	*	*
1r	.	1r	.	2DM	D:maj (D F# A)	.	.	voice
.	.	.	.	2AM	A:maj (A C# E)	.	.	voice
=73	=73	=73	=73	=73	=73	=73	=73	=73
8c#	Rin-	2a cc#	Doo,	2AM	A:maj (A C# E)	.	.	voice
8c#	-ging	.	.	.	.	.	.	.
8e	that	.	.	.	.	.	.	.
8c#q	_	.	.	.	.	.	.	.
[8B	blue	.	.	.	.	.	.	.
8B]	_	8g b	doo	2GM	G:maj (G B D)	.	.	voice
[8A	bell!	8f# a	doo	.	.	.	.	.
8A]	_	8r	.	.	.	.	.	.
8r	.	8f# a	doo,	.	.	.	.	.
=74	=74	=74	=74	=74	=74	=74	=74	=74
1r	.	8r	.	2DM	D:maj (D F# A)	.	.	voice
.	.	8c# e	doo,	.	.	.	.	.
.	.	8r	.	.	.	.	.	.
.	.	8A c#	doo	.	.	.	.	.
.	.	4.c# e	doo.	2AM	A:maj (A C# E)	.	.	voice
.	.	8r	.	.	.	.	.	.
=75	=75	=75	=75	=75	=75	=75	=75	=75
8c#	Caught	2a cc#	Doo	2AM	A:maj (A C# E)	.	.	voice
8c#	up	.	.	.	.	.	.	.
8e	in	.	.	.	.	.	.	.
8eq	_	.	.	.	.	.	.	.
[8f#	sun	.	.	.	.	.	.	.
8f#]	_	8g b	doo	2GM	G:maj (G B D)	.	.	voice
[8e	light!	8f# a	doo,	.	.	.	.	.
8e]	_	8r	.	.	.	.	.	.
8r	.	8f# a dd	doo,	.	.	.	.	.
=76	=76	=76	=76	=76	=76	=76	=76	=76
1r	.	8r	.	2DM	D:maj (D F# A)	.	.	voice
.	.	8c# e cc#	doo,	.	.	.	.	.
.	.	8r	.	.	.	.	.	.
.	.	8A c# b	doo	.	.	.	.	.
.	.	4.c# e a	doo!	2AM	A:maj (A C# E)	.	.	voice
.	.	8r	.	.	.	.	.	.
=77	=77	=77	=77	=77	=77	=77	=77	=77
8c#	Come	2a cc# ee	Doo,	2AM	A:maj (A C# E)	newline	118.538	voice
8c#	on	.	.	.	.	.	.	.
4e	out	.	.	.	.	.	.	.
8f#	sin-	8g b ee	doo	2EM	E:maj (E G# B)	.	.	voice
8e	-ging	8f# a dd	doo,	.	.	.	.	.
8e	I'll	8r	.	.	.	.	.	.
[8e	walk	8f# a dd	doo,	.	.	.	.	.
=78	=78	=78	=78	=78	=78	=78	=78	=78
8e]	_	8r	.	2GM	G:maj (G B D)	.	.	voice
8e	you	8c# e cc#	doo,	.	.	.	.	.
8e	in	8r	.	.	.	.	.	.
8f#	the	8A c# b	doo	.	.	.	.	.
8c	sun	[2f# [a [dd	doo!	2DM	D:maj (D F# A)	.	.	voice
8B	_	.	.	.	.	.	.	.
4A	shine,	.	.	.	.	.	.	.
=79	=79	=79	=79	=79	=79	=79	=79	=79
2d	_	2f#] a] dd]	_	1DM	D:maj (D F# A)	.	.	voice
8c	come	2r	.	.	.	.	.	.
8c	on,	.	.	.	.	.	.	.
8B	ho-	.	.	.	.	.	.	.
8A	-ney,	.	.	.	.	.	.	.
=80	=80	=80	=80	=80	=80	=80	=80	=80
*M2/4	*	*M2/4	*	*M2/4	*M2/4	*M2/4	*M2/4	*M2/4
8B#q	_	.	.	.	.	.	.	.
8c#	come	2r	.	2DM	D:maj (D F# A)	.	.	voice
8e	a	.	.	.	.	.	.	.
8c#q	_	.	.	.	.	.	.	.
8B	long	.	.	.	.	.	.	.
8A	with	.	.	.	.	.	.	.
=81	=81	=81	=81	=81	=81	=81	=81	=81
*M4/4	*	*M4/4	*	*M4/4	*M4/4	*M4/4	*M4/4	*M4/4
4A	me!	1r	.	1AM	A:maj (A C# E)	newline	124.015	guitar
4r	.	.	.	.	.	.	.	.
2r	.	.	.	.	.	.	.	.
=82	=82	=82	=82	=82	=82	=82	=82	=82
*	*	*clefF4	*	*	*	*	*	*
1r	.	1r	.	2EM	E:maj (E G# B)	.	.	guitar
.	.	.	.	2AM	A:maj (A C# E)	.	.	guitar
=83	=83	=83	=83	=83	=83	=83	=83	=83
*	*	*	*	*>B_bridge	*>B_bridge	*>B_bridge	*>B_bridge	*>B_bridge
4d	She's	4F# d	She's	1DM	D:maj (D F# A)	newline	127.091	voice
4f#	got	4A d	got	.	.	.	.	.
4d	ev-	4A d	ev-	.	.	.	.	.
8f#	-ry-	8A d	-ry-	.	.	.	.	.
[8g	-thing	[8B [e	-thing	.	.	.	.	.
=84	=84	=84	=84	=84	=84	=84	=84	=84
4g]	_	4B] e]	_	2GM	G:maj (G B D)	.	.	voice
8g	de-	8B e	de-	.	.	.	.	.
8f#	-light	[8A [d	-light	.	.	.	.	.
8e	_	8A] d]	_	2DM	D:maj (D F# A)	.	.	voice
8d	ful,	[8F# A	ful,	.	.	.	.	.
4r	.	8F#] B	_	.	.	.	.	.
.	.	8r	.	.	.	.	.	.
=85	=85	=85	=85	=85	=85	=85	=85	=85
4d	she's	4F# d	she's	1DM	D:maj (D F# A)	.	.	voice
4f#	got	4A d	got	.	.	.	.	.
4d	ev-	8A [d	ev-	.	.	.	.	.
.	.	8G d]	_	.	.	.	.	.
8f#	-ry-	8F# d	-ry-	.	.	.	.	.
[8e	-thing	[8G [c#	-thing	.	.	.	.	.
=86	=86	=86	=86	=86	=86	=86	=86	=86
8e]	_	8G] c#]	_	2AM	A:maj (A C# E)	.	.	voice
[8d	I	8F# A	I	.	.	.	.	.
4d]	_	4G B	_	.	.	.	.	.
4d	need.	4F# A	need.	2DM	D:maj (D F# A)	.	.	voice
8r	.	8r	.	.	.	.	.	.
8d	A	8A	A	.	.	.	.	.
=87	=87	=87	=87	=87	=87	=87	=87	=87
8f#	breeze	8A d	breeze	1DM	D:maj (D F# A)	newline	133.29	voice
8d	in	8F# B	in	.	.	.	.	.
8f#	the	8A d	the	.	.	.	.	.
[8f#	pines,	[8A [d	pines,	.	.	.	.	.
8f#]	_	8A] d]	_	.	.	.	.	.
8d	and	8F# B	and	.	.	.	.	.
8f#	the	8A d	the	.	.	.	.	.
[8g	sun,	[8B [e	sun,	.	.	.	.	.
=88	=88	=88	=88	=88	=88	=88	=88	=88
8g]	_	8B] e]	_	2GM	G:maj (G B D)	.	.	voice
8d	and	8A d	and	.	.	.	.	.
4g	bright	4B e	bright	.	.	.	.	.
8f#	moon	8A d	moon	2DM	D:maj (D F# A)	.	.	voice
8e	_	8G B	_	.	.	.	.	.
4d	light,	4F# A	light,	.	.	.	.	.
=89	=89	=89	=89	=89	=89	=89	=89	=89
8f#	cra-	8A d	cra-	1DM	D:maj (D F# A)	.	.	voice
8e	-zy	8A d	-zy	.	.	.	.	.
8f#	in	8A d	in	.	.	.	.	.
8e	the	8A d	the	.	.	.	.	.
8f#	sun	8A [d	sun	.	.	.	.	.
8e	_	8G d]	_	.	.	.	.	.
4d	light?	4F# B	light?	.	.	.	.	.
=90	=90	=90	=90	=90	=90	=90	=90	=90
8B	Yes,	8G# B	Yes,	2EM	E:maj (E G# B)	.	.	voice
[8e	in	4.G# B	in	.	.	.	.	.
8e]	_	.	.	.	.	.	.	.
[8e	deed!	.	.	.	.	.	.	.
2e_	_	[8A B	deed!	2AM	A:maj (A C# E)	.	.	voice
.	.	4.A_ [c#	_	.	.	.	.	.
=91	=91	=91	=91	=91	=91	=91	=91	=91
2e]	_	2A] c#]	_	1AM	A:maj (A C# E)	newline	139.55	guitar
2r	.	2r	.	.	.	.	.	.
=92	=92	=92	=92	=92	=92	=92	=92	=92
1r	.	1r	.	2EM	E:maj (E G# B)	.	.	guitar
.	.	.	.	2AM	A:maj (A C# E)	.	.	guitar
=93	=93	=93	=93	=93	=93	=93	=93	=93
*	*	*	*	*>A2_verse	*>A2_verse	*>A2_verse	*>A2_verse	*>A2_verse
8r	.	1r	.	1AM	A:maj (A C# E)	newline	142.677	voice
8E	A'-	.	.	.	.	.	.	.
8e	-some-	.	.	.	.	.	.	.
[8e	-times	.	.	.	.	.	.	.
8e]	_	.	.	.	.	.	.	.
8c#	when	.	.	.	.	.	.	.
8e	the	.	.	.	.	.	.	.
8e	cu	.	.	.	.	.	.	.
=94	=94	=94	=94	=94	=94	=94	=94	=94
8r	.	1r	.	2AM	A:maj (A C# E)	.	.	voice
[8e	ckoo's	.	.	.	.	.	.	.
8e]	_	.	.	.	.	.	.	.
[8e	cry	.	.	.	.	.	.	.
8e]	_	.	.	4DM	D:maj (A D F#)	.	.	voice
8c#q	_	.	.	.	.	.	.	.
[8B	ing,	.	.	.	.	.	.	.
8B]	_	.	.	4AM	A:maj (A C# E)	.	.	voice
8r	.	.	.	.	.	.	.	.
=95	=95	=95	=95	=95	=95	=95	=95	=95
4r	.	1r	.	1AM	A:maj (A C# E)	.	.	voice
8c#	when	.	.	.	.	.	.	.
8e	the	.	.	.	.	.	.	.
8c	moon	.	.	.	.	.	.	.
8B	_	.	.	.	.	.	.	.
8A	is	.	.	.	.	.	.	.
8B	half	.	.	.	.	.	.	.
=96	=96	=96	=96	=96	=96	=96	=96	=96
8r	.	1r	.	2AM	A:maj (A C# E)	.	.	voice
[8B	way	.	.	.	.	.	.	.
8B]	_	.	.	.	.	.	.	.
8A	_	.	.	.	.	.	.	.
8B	down,	.	.	4DM	D:maj (A D F#)	.	.	voice
[8c#	_	.	.	.	.	.	.	.
8c#]	_	.	.	4AM	A:maj (A C# E)	.	.	voice
8r	.	.	.	.	.	.	.	.
=97	=97	=97	=97	=97	=97	=97	=97	=97
*B:	*	*B:	*	*	*	*	*	*
*	*	*clefG2	*	*	*	*	*	*
4r	.	[1B [d# [f#	_	1BM	B:maj (B D# F#)	newline	148.841	voice
8d#	some	.	.	.	.	.	.	.
[8d#	times	.	.	.	.	.	.	.
8d#]	_	.	.	.	.	.	.	.
8B	when	.	.	.	.	.	.	.
8B	the	.	.	.	.	.	.	.
8e	night	.	.	.	.	.	.	.
=98	=98	=98	=98	=98	=98	=98	=98	=98
8r	.	1B] d#] f#]	_	2BM	B:maj (B D# F#)	.	.	voice
8e	is	.	.	.	.	.	.	.
4f#	_	.	.	.	.	.	.	.
8d#	dy	.	.	4EM	E:maj (B E G#)	.	.	voice
8c#	_	.	.	.	.	.	.	.
4B	ing,	.	.	4BM	B:maj (B D# F#)	.	.	voice
=99	=99	=99	=99	=99	=99	=99	=99	=99
*	*	*clefF4	*	*	*	*	*	*
8r	.	8r	.	1BM	B:maj (B D# F#)	.	.	voice
8B	I	8F# d#	I	.	.	.	.	.
8d#	take	8B f#	take	.	.	.	.	.
8c#	me	8B f#	me	.	.	.	.	.
8d#	out	8B f#	out	.	.	.	.	.
8c#	_	8G# e	_	.	.	.	.	.
8B	and	8F# d#	and	.	.	.	.	.
8B	I	8F# d#	I	.	.	.	.	.
=100	=100	=100	=100	=100	=100	=100	=100	=100
*M2/4	*	*M2/4	*	*M2/4	*M2/4	*M2/4	*M2/4	*M2/4
4G#	wan-	4F# d#	wan-	2F#M	F#:maj (F# A# C#)	.	.	voice
4B	-der	4F# f#	-der	.	.	.	.	.
=101	=101	=101	=101	=101	=101	=101	=101	=101
*M4/4	*	*M4/4	*	*M4/4	*M4/4	*M4/4	*M4/4	*M4/4
2c#	'round	2E [g#	'round!	2EM	E:maj (E G# B)	.	.	voice
[2B	_	[2F# g#_	_	2DM	D:maj (D F# A)	.	.	voice
=102	=102	=102	=102	=102	=102	=102	=102	=102
8B_	_	8F#] g#_	_	2AM	A:maj (A C# E)	.	.	voice
8A	_	8E g#]	_	.	.	.	.	.
4G#	_	4E [e	_	.	.	.	.	.
2B]	_	2G# e]	_	2EM	E:maj (E G# B)	.	.	voice
=103	=103	=103	=103	=103	=103	=103	=103	=103
*	*	*clefG2	*	*	*	*	*	*
8r	.	[1B [d# [b	_	2BM	B:maj (B D# F#)	newline	157.414	voice
8G#	I	.	.	.	.	.	.	.
8d#	wan-	.	.	.	.	.	.	.
8B	-der	.	.	.	.	.	.	.
8B	round!	.	.	2AM	A:maj (A C# E)	.	.	voice
8G#	_	.	.	.	.	.	.	.
4r	.	.	.	.	.	.	.	.
=104	=104	=104	=104	=104	=104	=104	=104	=104
1r	.	4B_ d#] b]	_	2EM	E:maj (E G# B)	.	.	voice
.	.	4B]	_	.	.	.	.	.
.	.	2r	.	2BM	B:maj (B D# F#)	.	.	voice
=105	=105	=105	=105	=105	=105	=105	=105	=105
1r	.	1r	.	1BM	B:maj (B D# F#)	.	.	voice
=106	=106	=106	=106	=106	=106	=106	=106	=106
*M2/4	*	*M2/4	*	*M2/4	*M2/4	*M2/4	*M2/4	*M2/4
2r	.	2r	.	2N	N	.	.	voice
=107	=107	=107	=107	=107	=107	=107	=107	=107
*M4/4	*	*M4/4	*	*>_outro	*>_outro	*>_outro	*>_outro	*>_outro
*clefF4	*	*	*	*M4/4	*M4/4	*M4/4	*M4/4	*M4/4
2r	.	8d# f#	Doo,	1BM	B:maj (B D# F#)	newline	162.988	.
.	.	8r	.	.	.	.	.	.
.	.	8r	.	.	.	.	.	.
.	.	8d# f#	doo	.	.	.	.	.
4r	.	8d# f#	doo	.	.	.	.	.
.	.	8d# f#	doo,	.	.	.	.	.
8r	.	4r	.	.	.	.	.	.
8F#	A'-	.	.	.	.	.	.	.
=108	=108	=108	=108	=108	=108	=108	=108	=108
4d#	-sun-	4r	.	2BM	B:maj (B D# F#)	.	.	.
8c#	-shine	8d# f#	doo	.	.	.	.	.
8B	_	8e g#	doo,	.	.	.	.	.
4d#	day-	8r	.	2EM	E:maj (B E G#)	.	.	.
.	.	8d# f#	doo	.	.	.	.	.
8c#	-dream!	8e g#	doo	.	.	.	.	.
8B	_	8r	.	.	.	.	.	.
=109	=109	=109	=109	=109	=109	=109	=109	=109
2r	.	8d# f#	doo,	1BM	B:maj (B D# F#)	.	.	.
.	.	8r	.	.	.	.	.	.
.	.	8r	.	.	.	.	.	.
.	.	8d# f#	doo	.	.	.	.	.
4r	.	8d# f#	doo	.	.	.	.	.
.	.	8d# f#	doo,	.	.	.	.	.
8r	.	8r	.	.	.	.	.	.
8F#	A'-	8c# f#	doo,	.	.	.	.	.
=110	=110	=110	=110	=110	=110	=110	=110	=110
8f#	-wal-	8r	.	2F#M	F#:maj (F# A# C#)	.	.	.
[8f#	-kin'	8d# f#	doo,	.	.	.	.	.
8f#]	in	8r	.	.	.	.	.	.
8g#	the	8c# e	doo	.	.	.	.	.
8c##q	_	.	.	.	.	.	.	.
8d#	tall	4B g#	doo!	2EM	E:maj (E G# B)	.	.	.
8c#	_	.	.	.	.	.	.	.
4B	trees!	4r	.	.	.	.	.	.
=111	=111	=111	=111	=111	=111	=111	=111	=111
2r	.	8B d# f#	Doo,	1BM	B:maj (B D# F#)	.	.	.
.	.	8r	.	.	.	.	.	.
.	.	8r	.	.	.	.	.	.
.	.	8B d# f#	doo	.	.	.	.	.
4r	.	8B d# f#	doo	.	.	.	.	.
.	.	8B d# f#	doo,	.	.	.	.	.
8r	.	4r	.	.	.	.	.	.
8F#	A'-	.	.	.	.	.	.	.
=112	=112	=112	=112	=112	=112	=112	=112	=112
*clefG2	*	*	*	*	*	*	*	*
8d	-go-	4r	.	2BM	B:maj (B D# F#)	.	.	.
8d	-ing	.	.	.	.	.	.	.
8c#	where	8B d# f#	doo	.	.	.	.	.
8B	the	8B e g#	doo,	.	.	.	.	.
8d	wind	8r	.	2EM	E:maj (B E G#)	.	.	.
8d	_	8B d# f#	doo	.	.	.	.	.
8c#	goes!	8B e g#	doo	.	.	.	.	.
8B	_	8r	.	.	.	.	.	.
=113	=113	=113	=113	=113	=113	=113	=113	=113
1r	.	8B d# f#	doo,	1BM	B:maj (B D# F#)	.	.	.
.	.	8r	.	.	.	.	.	.
.	.	8r	.	.	.	.	.	.
.	.	8B d# f#	doo	.	.	.	.	.
.	.	8B d# f#	doo	.	.	.	.	.
.	.	8B d# f#	doo,	.	.	.	.	.
.	.	8r	.	.	.	.	.	.
.	.	8A# c# f#	doo,	.	.	.	.	.
=114	=114	=114	=114	=114	=114	=114	=114	=114
2r	.	8r	.	2F#M	F#:maj (F# A# C#)	.	.	.
.	.	8A# d# f#	doo,	.	.	.	.	.
.	.	8r	.	.	.	.	.	.
.	.	8G# c# e	doo	.	.	.	.	.
8g#	Bloo-	4B e g#	doo!	2EM	E:maj (E G# B)	.	.	.
8f#	-min'	.	.	.	.	.	.	.
8f#	like	4r	.	.	.	.	.	.
8g#	a	.	.	.	.	.	.	.
=115	=115	=115	=115	=115	=115	=115	=115	=115
8d#	red	8B d# f#	Doo,	1BM	B:maj (B D# F#)	.	.	.
8c#	_	8r	.	.	.	.	.	.
4B	rose!	8r	.	.	.	.	.	.
.	.	8B d# f#	doo	.	.	.	.	.
2r	.	8B d# f#	doo	.	.	.	.	.
.	.	8B d# f#	doo,	.	.	.	.	.
.	.	4r	.	.	.	.	.	.
=116	=116	=116	=116	=116	=116	=116	=116	=116
2r	.	4r	.	2BM	B:maj (B D# F#)	.	.	.
.	.	8B d# f#	doo	.	.	.	.	.
.	.	8c# e g#	doo,	.	.	.	.	.
8d	Brea-	8r	.	2EM	E:maj (B E G#)	.	.	.
8d#	-thin'	8B d# f#	doo	.	.	.	.	.
8c#	more	8c# e g#	doo	.	.	.	.	.
8B	_	8r	.	.	.	.	.	.
=117	=117	=117	=117	=117	=117	=117	=117	=117
8d	free	8B d# f#	doo,	1BM	B:maj (B D# F#)	.	.	.
8d#	_	8r	.	.	.	.	.	.
8c#	ly!	8r	.	.	.	.	.	.
8B	_	8B d# f#	doo	.	.	.	.	.
2r	.	8B d# f#	doo	.	.	.	.	.
.	.	8B d# f#	doo,	.	.	.	.	.
.	.	8r	.	.	.	.	.	.
.	.	8A# c# f#	doo,	.	.	.	.	.
=118	=118	=118	=118	=118	=118	=118	=118	=118
2r	.	8r	.	2F#M	F#:maj (F# A# C#)	.	.	.
.	.	8A# d# f#	doo,	.	.	.	.	.
.	.	8r	.	.	.	.	.	.
.	.	8G# c# e	doo	.	.	.	.	.
8f#	Lord,	4B e g#	doo!	2EM	E:maj (E G# B)	.	.	.
[8f#	I'm	.	.	.	.	.	.	.
8f#]	_	4r	.	.	.	.	.	.
[8g#	sin-	.	.	.	.	.	.	.
=119	=119	=119	=119	=119	=119	=119	=119	=119
8g#]	_	8B d# f#	Doo,	1BM	B:maj (B D# F#)	newline	181.511	fadeout, voice
8f#	-ging,	8r	.	.	.	.	.	.
8f#	I'll	8r	.	.	.	.	.	.
[8f#	walk	8B d# f#	doo	.	.	.	.	.
8f#]	_	8B d# f#	doo	.	.	.	.	.
8f#	you	8B d# f#	doo,	.	.	.	.	.
8f#	in	4r	.	.	.	.	.	.
8g#	the	.	.	.	.	.	.	.
=120	=120	=120	=120	=120	=120	=120	=120	=120
8c#q	_	.	.	.	.	.	.	.
8d	mor	4r	.	2BM	B:maj (B D# F#)	.	.	fadeout, voice
8c#	_	.	.	.	.	.	.	.
8B	ning	8B d# f#	doo	.	.	.	.	.
8dq	_	.	.	.	.	.	.	.
[8c#	sun	8c# e g#	doo,	.	.	.	.	.
8c#]	_	8r	.	2EM	E:maj (B E G#)	.	.	fadeout, voice
8c#	shine!	8B d# f#	doo	.	.	.	.	.
4B	_	8c# e g#	doo	.	.	.	.	.
.	.	8r	.	.	.	.	.	.
=121	=121	=121	=121	=121	=121	=121	=121	=121
1r	.	8B d# f#	doo,	1BM	B:maj (B D# F#)	.	.	fadeout, voice
.	.	8r	.	.	.	.	.	.
.	.	8r	.	.	.	.	.	.
.	.	8B d# f#	doo	.	.	.	.	.
.	.	8B d# f#	doo	.	.	.	.	.
.	.	8B d# f#	doo,	.	.	.	.	.
.	.	8r	.	.	.	.	.	.
.	.	8A# c# f#	doo,	.	.	.	.	.
=122	=122	=122	=122	=122	=122	=122	=122	=122
8d	Sun-	8r	.	2F#M	F#:maj (F# A# C#)	.	.	fadeout, voice
8d	_	8A# d# f#	doo,	.	.	.	.	.
8c#	-shine	8r	.	.	.	.	.	.
8B	_	8G# c# e	doo	.	.	.	.	.
8d	day	4B e g#	doo!	2EM	E:maj (E G# B)	.	.	fadeout, voice
8d	_	.	.	.	.	.	.	.
8c#	dream!	4r	.	.	.	.	.	.
8B	_	.	.	.	.	.	.	.
=123	=123	=123	=123	=123	=123	=123	=123	=123
2r	.	8B d# f#	Doo,	1BM	B:maj (B D# F#)	.	.	fadeout, voice
.	.	8r	.	.	.	.	.	.
.	.	8r	.	.	.	.	.	.
.	.	8B d# f#	doo	.	.	.	.	.
4r	.	8B d# f#	doo	.	.	.	.	.
.	.	8B d# f#	doo,	.	.	.	.	.
8r	.	4r	.	.	.	.	.	.
[8d	Sun	.	.	.	.	.	.	.
=124	=124	=124	=124	=124	=124	=124	=124	=124
8d]	_	4r	.	2BM	B:maj (B D# F#)	.	.	fadeout, voice
8c#	shine	.	.	.	.	.	.	.
8B	_	8B d# f#	doo	.	.	.	.	.
[8d	day	8c# e g#	doo,	.	.	.	.	.
8d]	_	8r	.	2EM	E:maj (B E G#)	.	.	fadeout, voice
8c#	dream!	8B d# f#	doo	.	.	.	.	.
4B	_	8c# e g#	doo	.	.	.	.	.
.	.	8r	.	.	.	.	.	.
=125	=125	=125	=125	=125	=125	=125	=125	=125
1r	.	8B d# f#	doo,	1BM	B:maj (B D# F#)	.	.	fadeout, voice
.	.	8r	.	.	.	.	.	.
.	.	8r	.	.	.	.	.	.
.	.	8B d# f#	doo	.	.	.	.	.
.	.	8B d# f#	doo	.	.	.	.	.
.	.	8B d# f#	doo,	.	.	.	.	.
.	.	8r	.	.	.	.	.	.
.	.	8A# c# f#	doo,	.	.	.	.	.
=126	=126	=126	=126	=126	=126	=126	=126	=126
8f#	Walk	8r	.	2F#M	F#:maj (F# A# C#)	.	.	fadeout, voice
[8f#	you	8A# d# f#	doo,	.	.	.	.	.
8f#]	in	8r	.	.	.	.	.	.
8g#	the	8G# c# e	doo	.	.	.	.	.
8c##q	_	.	.	.	.	.	.	.
8d#	sun	4B e g#	doo!	2EM	E:maj (E G# B)	.	.	fadeout, voice
8c#	_	.	.	.	.	.	.	.
4B	shine!	4r	.	.	.	.	.	.
=127	=127	=127	=127	=127	=127	=127	=127	=127
1r	.	1r	.	1BM	B:maj (B D# F#)	.	.	fadeout, voice
=128	=128	=128	=128	=128	=128	=128	=128	=128
1r	.	1r	.	2BM	B:maj (B D# F#)	.	.	fadeout, voice
.	.	.	.	2EM	E:maj (B E G#)	.	.	fadeout, voice
=129	=129	=129	=129	=129	=129	=129	=129	=129
1r	.	1r	.	1BM	B:maj (B D# F#)	.	.	fadeout, voice
=130	=130	=130	=130	=130	=130	=130	=130	=130
1r	.	1r	.	2F#M	F#:maj (F# A# C#)	.	.	fadeout, voice
.	.	.	.	2EM	E:maj (E G# B)	.	.	fadeout, voice
r;	.	r;	.	1r;	r	.	197.342	r
r;	.	r;	.	1r;	r	.	199.131	r
*-	*-	*-	*-	*-	*-	*-	*-	*-
!!!BillboardChartDate: 1973/02/10
!!!BillboardPeak: 91
!!!BillboardWeeksOnChart: 2
!!!COC: Grateful Dead
!!!ENC: Nathaniel Condit-Schultz
!!!EST: Awating manual error checking and editing.
!!!OTL: Sugar Magnolia
!!!RDF**chordsym: original McGill chord annotation + (implied pitch class set, with bass pitch in first position)
!!!RDF**harmony: **recip + pitch class of root + harmonic quality
!!!RDF**leadinstrument: original McGill primary instrumentation annotation
!!!RDF**phrase: newline = linebreak in original McGill transcription
!!!RDF**timestamp: McGill audio timestamp in seconds
!!!RDT: 2017/01/12/
!!!SampleActualRank: 91
!!!SampleID#: 1034
!!!SampleTargetRank: 93
